X:1
T:Chorus of Fire
T:Chorus of Fire
T:Robert Lowry
T:Robert Lowry, 1867
T:Public Domain Courtesy of the Cyber Hymnal™
T:Public Domain Courtesy of the Cyber Hymnal™
C:Robert Lowry
Z:Public Domain
Z:Courtesy of the Cyber Hymnal™
%%score ( 1 2 ) ( 3 4 )
L:1/8
Q:1/4=140
M:3/4
K:Bb
V:1 treble 
V:2 treble 
V:3 bass 
V:4 bass 
V:1
 ([CA][DB]) | [Fd]2 [Ge]2 [Fd]2 | [Fd]2 [Ec]2 [DB]2 | [Ec]2 [EB]2 [EG]2 | [EG]2 [DF]2 [DF]2 | %5
w: 1.~O! *|gold- en here-|af- ter, Thine|ev- ery bright|raft- er Will|
w: 2.~O! *|host with- out|num- ber, A-|waked from death’s|slum- ber, Who|
w: 3.~O! *|man- sions e-|ter- nal, In|fields ev- er|ver- nal, A-|
w: 4.~O! *|Je- sus, our|mas- ter, Com-|mand to beat|fast- er These|
 [B,D]2 [DF]2 [DB]2 | [FB]2 [FA]2 [FB]2 | [Fd]2 [Fc]2 [FB]2 | [Fc]4 ([DB][Ec]) | %9
w: shake in the|thun- der of|sanc- ti- fied|song; And *|
w: walk in white|robes on the|em- e- rald|shore; The *|
w: wait- ing your|ten- ant- ry|ran- somed from|sin, We’ll *|
w: wea- ry life|puls- es that|bring us to|Thee, Till, *|
 [Fd]2 [Ge]2 [Fd]2 | [Fd]2 [Ec]2 [DB]2 | [Ec]2 [EB]2 [EG]2 | [EG]2 [DF]2 [DF]2 | %13
w: ev- ery swift|an- gel Pro-|claim an e-|van- gel, To|
w: glo- ry is|o’er you, The|throne is be-|fore you, And|
w: stand on your|pave- ment, No|more in en-|slave- ment, With|
w: past the dark|por- tal, We|stand up im-|mor- tal, And|
 [B,D]2 [DF]2 [DB]2 | [DB]2 [Ec]2 [Fd]2 | [Ec]2 [DB]2 [CA]2 | [DB]4 ||"^Refrain" ([Fd][Ec]) | %18
w: sum- mon God’s|saints to the|glo- ri- fied|throng.||
w: weep- ing will|come to your|spir- its no|more.|O! *|
w: home- songs to|Je- sus to|wel- comes us|in.||
w: sweep with ho-|san- nas the|jas- per lit|sea.||
 [DB]2 F2 [FA]2 | [FB]4 [DB]>[Ec] | [Fd]2 [Fc]2 [=EB]2 | [Fc]4 [Fc]>[Fd] | [Fe]2 [Fd]2 [Fc]2 | %23
w: |||||
w: cho- rus of|fire, That will|burst from God’s|choir, When the|loud hal- le-|
w: |||||
w: |||||
 [Fd]2 [Fc]2 [FB]2 | [FB]2 [FA]2 [DB]2 | [Fc]4 [DF]>[DF] | [FB]2 [Ec]2 [CA]2 | [DB]4 [DB]>[Ec] | %28
w: |||||
w: lu- jahs leap|up from the|soul, Till the|flowers on the|hills, And the|
w: |||||
w: |||||
 [Fd]2 [Fe]2 [Fd]2 | [Fc]4 (d>c) | (B>A) (B>c) (d>e) | !fermata![Ff]4 [Fd]>[Ec] | %32
w: ||||
w: waves in the|rills, Shall *|trem- * ble * with *|joy in the|
w: ||||
w: ||||
 [DB]2 [Ec]2 [CA]2 | [DB]4 |] %34
w: ||
w: mu- sic’s deep|roll.|
w: ||
w: ||
V:2
 x2 | x6 | x6 | x6 | x6 | x6 | x6 | x6 | x6 | x6 | x6 | x6 | x6 | x6 | x6 | x6 | x4 || x2 | %18
 x2 F2 x2 | x6 | x6 | x6 | x6 | x6 | x6 | x6 | x6 | x6 | x6 | x4 F2 | F2 F2 F2 | x6 | x6 | x4 |] %34
V:3
 [B,,F,]2 | [B,,B,]2 [B,,B,]2 [B,,B,]2 | [B,,B,]2 [B,,F,]2 [B,,F,]2 | [E,G,]2 [E,G,]2 [E,B,]2 | %4
 [B,,B,]2 [B,,B,]2 [B,,B,]2 | [B,,F,]2 [B,,B,]2 [B,,B,]2 | [D,B,]2 [C,C]2 [B,,D]2 | %7
 [B,,B,]2 [C,A,]2 [D,B,]2 | [F,A,]4 [B,,B,]2 | [B,,B,]2 [B,,B,]2 [B,,B,]2 | %10
 [B,,B,]2 [B,,F,]2 [B,,F,]2 | [E,G,]2 [E,G,]2 [E,B,]2 | [B,,B,]2 [B,,B,]2 [B,,B,]2 | %13
 [B,,F,]2 [B,,B,]2 [B,,B,]2 | [B,,B,]2 [B,,B,]2 [B,,B,]2 | [E,G,]2 F,2 F,2 | [B,,F,]4 || %17
 !fermata!B,2 | [B,,B,]2 [D,B,]2 [F,C]2 | [B,,B,D]4 B,>B, | B,2 A,2 [G,B,]2 | %21
 [F,A,]4 [F,A,]>[G,B,] | [F,C]2 [F,B,]2 [F,A,]2 | B,2 [F,A,]2 [D,B,]2 | [D,B,]2 [C,F,]2 [B,,B,]2 | %25
 [F,A,]4 [B,,B,]>[B,,B,] | [D,B,]2 [E,G,]2 F,2 | [B,,F,]4 B,>B, | B,2 [A,C]2 B,2 | [F,A,]4 B,2 | %30
 (D>C) (B,>A,) (B,>C) | !fermata![B,D]4 B,>[F,A,] | [G,B,]2 [E,G,]2 F,2 | [B,,F,]4 |] %34
V:4
 x2 | x6 | x6 | x6 | x6 | x6 | x6 | x6 | x6 | x6 | x6 | x6 | x6 | x6 | x6 | x2 F,2 F,2 | x4 || %17
 B,2 | x6 | x4 B,>B, | B,2 A,2 x2 | x6 | x6 | B,2 x4 | x6 | x6 | x4 F,2 | x4 B,>B, | B,2 B,2 x2 | %29
 x4 B,2 | B,2 B,2 B,2 | x4 B,3/2 x/ | x4 F,2 | x4 |] %34

